X:1
T:4 Lieder, Op. 27
T:Heimliche Aufforderung
T:4 Lieder, Op. 27 Für hohe Stimme 
T:John Henry Mackay
T:Richard Stauss
T:3. Heimliche Aufforderung
T:OpenScore (CC0)  
T:OpenScore (CC0)  
T:OpenScore (CC0)  
T:OpenScore (CC0)  
T:OpenScore (CC0)  
T:OpenScore (CC0)  
C:Strauss, Richard
Z:Mackay, John Henry
Z:OpenScore (CC0)
%%score 1 { ( 2 5 ) | ( 3 4 ) }
L:1/8
Q:1/4=100
M:6/8
K:Bb
V:1 treble nm="Singstimme\nVoice"
V:2 treble nm="Piano"
V:5 treble 
V:3 bass 
V:4 bass 
V:1
"^Lebhaft" z6 | d2 z B3/2 c/ d | B3/2 A/ G B c d | f2 d f3 | z z F B c d | g3- g2 f | d3 B2 e | %7
w: |Auf, he- be die|fun- keln- de Scha- le em-|por zum Mund,|und trin- ke beim|Freu- * den-|mah- le dein|
 d2 c B3 | z z B B c B | e6- | e"^dim." c c2 c d | e2 g c3 | z2 z!p! e3 | e3- e2 e | e6- | %15
w: Herz ge- sund.|Und wenn du sie|hebst,|_ so win- ke mir|heim- lich zu,|dann|läch- * le|ich|
 e2 z e3 | e6 | =e2 e e3 | c3- c2 c | c6 | z2 z c3 | c3- c2 F | _A3- A2 =A | B3 B2 B | c3- c2 B | %25
w: _ und|dann|trin- ke ich|still _ wie|du...|und|still _ gleich|mir _ be-|trach- te um|uns _ das|
 g2 e d2 c | B =A z z2 z | z2 z z2"^(leichthin)" f | =e d c =B2 e | c2 z g3- | g2 z f c d | %31
w: Heer der trunk- nen|Schwät- zer|ver-|ach- te sie nicht zu|sehr. Nein,|_ he- be die|
 B3/2 A/ G (B3 | B) c d f2 d | f6 | z z F B2 d | g3- g f e | d3 B2 e | d2 c B2 z | z2 z B3 | %39
w: blin- ken- de Scha-|* le, ge- füllt mit|Wein,|und lass beim|lär- * men- den|Mah- le sie|glück- lich sein.|Doch|
 B3 B2 B | B3- B2 c | c3 B2 z |[Q:1/4=70]"^allmählich ruhiger" z z B B2 c | c2 z B2 B | B3 B2 B | %45
w: hast du das|Mahl _ ge-|nos- sen,|den Durst ge-|stillt, dann ver-|las- se der|
 B c d e2 B | z B2 B _A B | _d6- | d3- d2 z | z6 | z!pp! ^F2- F3 | %51
w: lau- ten Ge- nos- sen|fest- freu- di- ges|Bild|_ _||und _|
[Q:1/4=100]"^wieder im Zeitmass" ^F3 ^G2 ^A | =B3 B2 ^c | ^d6 | =B2 z z2 ^D | ^G2 ^F ^D3- | %56
w: wand- le hin-|aus in den|Gar-|ten zum|Ro- sen- strauch,|
 ^D2 z ^F3 | (^F3 ^G2) ^A | =B3- B2 ^c | ^d6 | =B2 z z2 _c | _c2 _d B3- | %62
w: _ dort|will ich dich|dann _ er-|war-|ten nach|al- tem Brauch,|
 B2 z[Q:1/4=85]"^(tranquillo)""^(ruhig)" (B3 | B3 B2 B | _d3 _c3 | B6 | _G2) z z2 z | B6 | %68
w: _ und|will an die|Brust dir|sin-|ken,|eh'|
 _A3- A2 _G | _A6 |[M:2/4]"^(mit Steigerung)" _A A2 B | _c3 _d | =d2 e z3/2 | z3 =B2 | =B3 ^c | %75
w: du's _ ge-|hofft,|und dei- ne|Küs- se|trin- ken,|wie|eh- mals|
 ^A4 | z6 |[M:6/8] z2[Q:1/4=110]"^T" =B B3- | B =B B ^c2"^cresc." ^d | =e6 | =B2 B =e3- | %81
w: oft||und flech-|* ten in dei- ne|Haa-|re der Ro-|
 e2 ^f ^g3- | g2 z ^g3 | _a6- | a2 z c3 | g3 f3 | e3 c2 _A | e6- | e3 d3 | _d6- | _d2 z =e3 | %91
w: * se Pracht,|_ o|komm,|_ du|wun- der-|ba- re er-|sehn-|* te|Nacht,|_ o|
 g3- g2 f | d3 B3 | A3 G3 | z2 z B3 | d6- | d6- | d6 | c6 | B6- | B6- | B6 | z6 | z6 | z6 | z6 | %106
w: komm, _ du|wun- der-|ba- re|er-|sehn-|||te|Nacht!|_||||||
 z6 | z6 | z6 | z6 | z6 | z6 |] %112
w: ||||||
V:2
 x6 | x6 | x6 | x6 | x6 | x6 | x6 | x6 | x6 | x6 | x6 |!p! x3 e!pp! z ([cg] | [eb]2 [cg] [eb]3) | %13
 x6 | ^d z ([=B^f] [d=b]2 [^cf] |!<(! [=B^d=b]6)!<)! | [c_e_gc']6 | %17
!p! ([c=ebc'-]2 c'/=b/ _b/g/e/c/B/G/ | [=EBc-]2 c/=B/!>(! _B/G/E/D/C/B,/)!>)! | %19
 A,-(A,/C/F/G/ A/F/C/A,/[I:staff +1]F,/C,/) |[I:staff -1] x6 | x6 | x6 | x6 | x6 | x3 z2 z | %26
 z z!f! ([_G=Ae]!sfz! [Ac_g]3- |!>(! [Acg][^G=Bf][=A=e]!>)!!p! [c=a]) z z | z6 | %29
 z2 z!f! [GAe-g-]3 | [eg]2 z ([Aef]cd | B2) x4 | x6 | x6 | %34
[I:staff +1] (7:6:7(B,,/F,/B,/[I:staff -1]D/F/G/A/!<(! B2 [Fd])!<)! | ([Be-g-]3 [eg][df][ce] | %36
 [Bd]3 [FB]2) ([GBe] | [FAd]2 [Ec]!>(! [DB]3)!>)! |!>(! (C/D/E/F/G/A/ B)!>)!!pp!BB | BBB BBB | %40
 BBB BBB | BBB [AB][AB][AB] | [AB][AB][AB] [AB][AB][AB] | [_AB][AB][AB] [AB][AB][AB] | %44
 [_AB][AB][AB] [GB][GB][GB] | [GB][GB][GB] [GB][GB][GB] | [_GB][GB][GB] [GB][GB][GB] | %47
 [_GB][GB][GB] [GB][GB][GB] | [^F^A][FA][FA] [FA][FA][FA] | [^F^A][FA][FA]"_dim." [FA][FA][FA] | %50
 [^F^A](.[=EFA].[EFA] .[EFA]2) z | (=B^dB ^F3- | ^F^f^d =B3- | B=b^f ^d3- | d2 =B ^F2 ^D) | %55
 ([^A,^C^G]2 ^F [^F,=B,^D]3) | z2 z!<(! ^C/^D/=E/^F/^G/^A/!<)! |!pp! (=B^dB ^F3- | F^f^d =B3- | %59
 B=b^f ^d3- | ^d^d'=b ^f2 ^d) | [E_A]3 _d [=DAB]2 | B[B,B][B,B]!<(! [B,B][B,B][B,B]!<)! | %63
!p! [B,_GB][B,GB][B,GB] [B,GB][B,GB][B,GB] | [_D_G_d][DGd][DGd] [_CG_c][CGc][CGc] | %65
 [B,_GB][B,GB][B,GB] [B,GB][B,GB][B,GB] | [B,_GB] x x B(.[GB].[DGB]) | %67
 [B,C_GB][B,CGB][B,CGB] [B,CGB][B,CGB][B,CGB] | [_A,C_G_A][A,CGA][A,CGA] [A,CGA][A,CGA][A,CGA] | %69
 [_A,_D_G_A][A,DGA][A,DGA] [A,DGA] x2 | _A(.[_GA]"_cresc.".[FA] .[_FA])[_A,_DFA][B,DFB] | %71
 [_CE_A_c][CEAc][CEAc] [EAc][CEAc][_D_d] | [=D_A_c=d][DAcd][DAcd] [EAce][EAce][EAce] | %73
 [=EG=B=e][EBe][EBe] [EBe][EBe][EBe] | [^E=B^e][EBe][EBe]!>(! [EB^ce][EBce][EBce]!>)! | (^f6- | %76
 [^Ff]3 [^G^g]3) |"_crescendo" ([=A=a]6 | =b6) | =b6- | =b3 b3- | b3 =b3- | b6 | %83
!f! [c_e_ac']3 C/E/_A/c/e/a/ | %84
 c'/_a/e/[I:staff +1]c/_A/E/[I:staff -1] (c/_A/E/[I:staff +1]C/_A,/E,/) | %85
[I:staff -1] [CE_Ac]3 C/E/A/c/e/_a/ | %86
 c'/_a/e/[I:staff +1]c/_A/E/[I:staff -1] (c/_A/E/[I:staff +1]C/_A,/E,/) | %87
!p![I:staff -1] [EGce]3 E/G/c/e/g/c'/ | %88
 e'/c'/g/[I:staff +1]e/c/G/[I:staff -1] (d/B/G/[I:staff +1]D/B,/G,/) | %89
"_cresc."[I:staff -1] [_DGB_d]>G,B,/D/ G>(B,D/=E/ | B>)(=EG/B/ =e3) |!f! [GB=dg]3 F/B/d/f/b/d'/ | %92
 f'/d'/b/[I:staff +1]f/d/B/[I:staff -1] f/d/B/[I:staff +1]F/D/B,/ | %93
[I:staff -1] A3 (G/B/d/"_dim."f/b/d'/ | f'/d'/b/f/d/B/ F/[I:staff +1]D/B,/F,/D,/B,,/) | %95
[I:staff -1] [FAdf]3 F/A/d/f/a/d'/ | f' z z z2 z | [FAdf]3 F/A/c/f/a/c'/ | f' z z z2 z | %99
!pp! [DB]3 D/F/B/d/f/b/ | d'/b/f/[I:staff +1]d/B/F/[I:staff -1] (d/B/F/[I:staff +1]D/B,/F,/) | %101
[I:staff -1] [F,DF]3"_dim." B,/D/F/B/d/f/ | %102
 b/f/d/[I:staff +1]B/F/D/[I:staff -1] B/F/D/[I:staff +1]B,/F,/D,/ | %103
!p!"^espr."[I:staff -1] ([DG-d]6 | [CGc]3-!>(! [CGc]2 [B,FB])!>)! |!p! ([DG-d]6 | %106
 [CGc]3-!>(! [CGc]2 [B,FB])!>)! |"_dim." (G2 F [B,D]3- | [F,B,D]) x2 D3 | G6- | (G3 F3) | %111
 !fermata![D,F,B,D]6 |] %112
V:3
!f!!ped! (7:6:7(B,,/F,/B,/[I:staff -1]D/F/B/c/ (7:6:7d/c/B/F/D/[I:staff +1]B,/F,/) | %1
 (7:6:7(B,,/F,/B,/[I:staff -1]D/F/B/c/ (7:6:7d/c/B/F/D/[I:staff +1]B,/F,/) | %2
 (7:6:7(B,,/F,/B,/[I:staff -1]D/F/B/c/ (7:6:7d/c/B/F/D/[I:staff +1]B,/F,/) | %3
 (7:6:7(B,,/F,/B,/[I:staff -1]D/F/B/c/ (7:6:7d/c/B/F/D/[I:staff +1]B,/F,/) | %4
 (7:6:7(B,,/F,/B,/[I:staff -1]D/F/B/c/ (7:6:7d/c/B/F/D/[I:staff +1]B,/F,/)!ped-up! | %5
!ped! (7:6:7(F,,/D,/F,/B,/[I:staff -1]D/F/B/ (7:6:7d/B/F/D/[I:staff +1]B,/F,/D,/) | %6
 (7:6:7(F,,/D,/F,/B,/[I:staff -1]D/F/B/ (7:6:7d/B/F/D/[I:staff +1]B,/F,/D,/)!ped-up! | %7
!ped! (F,,/C,/F,/[I:staff -1]E/F/!ped-up!A/)!ped![I:staff +1] (7:6:7(B,,/F,/B,/[I:staff -1]D/F/B/c/ | %8
 (7:6:7d/c/B/F/D/[I:staff +1]B,/F,/)!ped-up!"^dim." (B,,/F,/B,/[I:staff -1]E/F/B/) | %9
!ped![I:staff +1] (7:6:7(B,,/G,/B,/[I:staff -1]E/G/B/c/ (7:6:7e/c/B/G/E/[I:staff +1]B,/G,/) | %10
 (7:6:7(B,,/G,/B,/[I:staff -1]E/G/B/c/ (7:6:7e/c/B/G/E/[I:staff +1]B,/G,/)!ped-up! | %11
!ped! (7:6:7B,,/G,/B,/!>(![I:staff -1]E/G/B/c/!>)![I:staff +1] z2 (E | G2 E G3)!ped-up! | %13
!ped! =A,,/^D,/^F,/=A,/[I:staff -1]=B,/^C/ ^D/^F/=B/^B/^c/^^c/ |[I:staff +1] z z (^D ^F2 D | %15
 [^F=A]6)!ped-up! |!ped! (_A,,/_E,/_G,/_A,/E/_G/ _A) z z!ped-up! | %17
!ped! (=G,,/C,/=E,/G,/C/=E/) z2 z!ped-up! |!ped! (G,,/C,/=E,/G,/C/E/) z2 z!ped-up! | %19
!pp!!ped! (F,,/C,/F,/) z/ z x x2 | %20
 (F,,/C,/F,/[I:staff -1]A,/C/F/ A/F/C/A,/[I:staff +1]F,/C,/)!ped-up! | %21
!ped! (F,,/C,/F,/[I:staff -1]_A,/C/F/ _A/F/C/A,/[I:staff +1]F,/C,/) | %22
 (F,,/C,/F,/[I:staff -1]_A,/C/F/ _A/F/C/A,/[I:staff +1]F,/C,/)!ped-up! | %23
!ped! (F,,/B,,/_A,/[I:staff -1]B,/D/_A/ B/A/D/B,/[I:staff +1]A,/B,,/) | %24
"^cresc." (F,,/B,,/_A,/[I:staff -1]B,/D/_A/ B/A/D/B,/[I:staff +1]A,/B,,/)!ped-up! | %25
!ped! (E,,/B,,/E,/[I:staff -1]G,/B,/C/ E/G/B/c/e/g/)!ped-up! |[I:staff +1] z z (([E,-C] [E,E-]3) | %27
 EDC =E) z z | z6 | z2 z!ped! ([F,,,F,,]/C,/E,/G,/C/E/ | G) z z F!ped-up! z z | %31
!ped! (B,,/F,/B,/)!ped-up! z/ z x3 | %32
 (7:6:7(B,,/F,/B,/[I:staff -1]D/F/B/c/ (7:6:7d/c/B/F/D/[I:staff +1]B,/F,/) | %33
 (7:6:7(B,,/F,/B,/[I:staff -1]D/F/B/c/ (7:6:7d/c/B/F/D/[I:staff +1]B,/F,/) | %34
 x3 z/ (F/D/B,/F,/D,/) | z/!ped! (F,,/B,,/F,/B,/D/ F/D/B,/F,/B,,/F,,/)!ped-up! | %36
 z/!ped! (F,,/B,,/D,/F,/B,/ D/B,/F,/D,/B,,/F,,/)!ped-up! | %37
 z/ (F,,/C,/F,/A,) z/ (B,,/F,/G,/B,/) z/ | z6 | z6 | z6 | z6 | z6 | z6 | %44
 z2 z z/!ped! (B,,/E,/G,/B,/E/) | z6!ped-up! | z6 | z2 z"_espr." (F3 | =E6- | E3 ^C3 | ^F,6) | %51
!pp!!ped! (^F,,3- F,,/^D,/^F,/=B,/F,/D,/ | ^F,,3- F,,/^D,/^F,/=B,/F,/D,/ | %53
 ^F,,3- F,,/=B,,/^D,/^F,/=B,/^D/ | ^F) z z z2 z!ped-up! | (=E,3 ^D,)!ppp! x2 | %56
 ^D,/=E,/^F,/[I:staff -1]^G,/^A,/=B,/[I:staff +1] z2 z |!ped! (^F,,3- F,,/^D,/^F,/=B,/F,/D,/ | %58
 ^F,,3- F,,/^D,/^F,/=B,/F,/D,/ | ^F,,3- F,,/^D,/^F,/=B,/^D/^F/ | =B) z z z2 z!ped-up! | %61
 [=F,,_A,]3!ped! _B,,,/_B,,/F,/B,/[I:staff -1]D/F/ |[I:staff +1] z6!ped-up! | ([_G,,-_D,_G,]6 | %64
 F,3 E,3) |!ped! _D,6 | _G,,/_D,/_G,/[I:staff -1]B,/_D/G/[I:staff +1] z2 z!ped-up! | %67
 [_E,,_A,,_G,]6- | [E,,A,,G,]6 |!ped! [_D,,_A,,_D,]3 D,,/D,/_G,/[I:staff -1]_A,/_D/_G/ | %70
[I:staff +1] z2!ped-up! z _D,3 | z/ (_A,,,/!ped!_A,,/E,/_A,/B,/ _C) z z | z6!ped-up! | %73
 z/!ped! (G,,,/G,,/=B,,/=E,/G,/ =B,) z z!ped-up! | z2 z [G,=B,^C]3 | %75
!mf!!ped! (^F,,,/^F,,/^C,/^F,/^A,/^C/ ^F) z z | z6!ped-up! | %77
!ped! (^F,,/=B,,/^D,/A,/=B,/^D/ A) z z!ped-up! |!ped! (^F,,/=B,,/^D,/A,/=B,/^D/ A) z z!ped-up! | %79
!ped! (=E,,/=B,,/=E,/^G,/=B,/=E/ ^G) z z!ped-up! | %80
!ped! (=E,,/=B,,/=E,/^G,/=B,/=E/ ^G) z z!ped-up! | %81
 ([^C=E]2 [^D^F]) (=E,,/=B,,/!ped!=E,/^G,/=B,/E/ | ^G) z (^D =D3)!ped-up! | %83
!ped! [_E,,,_E,,]E,,/_A,,/E,/_A,/ z (E,/A,/C/E/ | _A) x x3 x!ped-up! | %85
 z!ped! E,,/"^dim."_A,,/E,/_A,/ z (E,/A,/C/E/ | _A) x x3 x!ped-up! | %87
 z!ped! E,,/E,/G,/C/ z (E,/C/E/G/ |[K:treble] c) x2 x[K:bass] x2!ped-up! | %89
 z/!ped! =E,,/B,,/_D,/=E, z/ (G,,/D,/E,/G,) | z/ (B,,/=E,/G,/B,) z/ (_D,/G,/B,/_D)!ped-up! | %91
!ped! [F,,,F,,]F,,/F,/B,/D/ z (F,/B,/D/F/ |[K:treble] B) x2 x[K:bass] x2 | %93
 z (F,,/D,/F,/B,/ D) z z | [F,B,DF] z z x3!ped-up! | z/!ped! F,,/F,/E,/F,/A,/ D z z | %96
[K:treble] [EFAd] z z z2 z |[K:bass] z/ F,,/F,/E,/F,/A,/!ped-up!!ped! C z z | %98
[K:treble] [EFAc] z z z2 z!ped-up! |[K:bass]!ped! [B,,,B,,]F,,/B,,/F,/B,/ z2 z | %100
 x4[K:treble][K:bass] x2 | z B,,,/F,,/B,,/F,/ z2 z | x4 x x!ped-up! | ([B,,E,B,]6- | %104
 [B,,E,B,]3- [B,,E,B,]2 [B,,D,]) | z!ped! (B,,,/E,,/B,,/E,/- [E,B,]3-) | B,3- B,2!ped-up! z | %107
 (E,3!ped! D,3) | B,,,/F,,/B,,/[I:staff -1]D,/F,/B,/[I:staff +1] z2!ped-up! z |!pp! [B,,E,]6- | %110
 [B,,E,]6 | !fermata![B,,,F,,B,,]6 |] %112
V:4
 x6 | x6 | x6 | x6 | x6 | x6 | x6 | x6 | x6 | x6 | x6 | x5 B,- | B,6 | x3 z2 z | x2 =A,- A,3 | x6 | %16
 x6 | x6 | x6 | x6 | x6 | x6 | x6 | x6 | x6 | x6 | x6 | x6 | x6 | x6 | x6 | x6 | x6 | x6 | x6 | %35
 x6 | x6 | x6 | x6 | x6 | x6 | x6 | x6 | x6 | x6 | x2 x x3 | x6 | x6 | x6 | x6 | x6 | x6 | x6 | %53
 x6 | x6 | ^F,,3- F,,^G,,/^A,,/=B,,/^C,/ | x6 | x6 | x6 | x6 | x6 | x6 | x6 | x6 | G,,6 | _G,,6 | %66
 x6 | x6 | x6 | x6 | x6 | x6 | x6 | x6 | x6 | x6 | x3 x3 | x6 | x6 | x6 | x6 | =B,3 x3 | x6 | x6 | %84
 x6 | x6 | x6 | x6 |[K:treble] x4[K:bass] x2 | x6 | x6 | x6 |[K:treble] x4[K:bass] x2 | x6 | x6 | %95
 x6 |[K:treble] x6 |[K:bass] x6 |[K:treble] x6 |[K:bass] x6 | x[K:treble] x3[K:bass] x2 | x6 | x6 | %103
 x6 | x6 | x6 | E,3- E,2 D, | B,,6 | x6 | x6 | x6 | x6 |] %112
V:5
 x6 | x6 | x6 | x6 | x6 | x6 | x6 | x6 | x6 | x6 | x6 | x6 | x6 | x6 | x6 | x6 | x6 | x6 | x6 | %19
 F2 x4 | x6 | x6 | x6 | x6 | x6 | x6 | x6 | x6 | x6 | x6 | x6 | %31
 (D-D/F/B/c/ (7:6:7d/c/B/F/D/[I:staff +1]B,/F,/) | x6 | x6 | x6 | x6 | x6 | x6 | x6 | x6 | x6 | %41
 x6 | x6 | x6 | x6 | x6 | x6 | x6 | x6 | x6 | x6 |[I:staff -1] ^D2 z x3 | x6 | x6 | x6 | x6 | x6 | %57
 ^D2 z x3 | x6 | x6 | x6 | _c2 x4 | x6 | x6 | x6 | x6 | x6 | x6 | x6 | x6 | x6 | x6 | x6 | x6 | %74
 x6 | [^F^A^c][FAc][FAc] [Ac][Ac][Ac] | [^A^c][Ac][Ac] x3 | [=B^d][Bd][Bd] [Bd][Bd][Bd] | %78
 [=B^da][Bda][Bda] [Bda][Bda][Bda] | [=B=e=g][Beg][Beg] [Beg][Beg][Beg] | %80
 [=B=e^g][Beg][Beg] [Beg][Beg][Beg] | (([A-=B-^c=e]2 [AB^d^f])) [Be^g][Beg][Beg] | %82
 [=B=e^g][Beg][Beg] [Beg][Beg][Beg] | x6 | x6 | x6 | x6 | x6 | x6 | x6 | x6 | x6 | x6 | x6 | x6 | %95
 x6 | x6 | x6 | x6 | x6 | x6 | x6 | x6 | x6 | x6 | x6 | x6 | [A,C]3 F,3- | x6 | [A,C]6- | [A,C]6 | %111
 x6 |] %112

